X: 1358
T:Gan Ainm
R:Reel
S:Maire O'Keeffe, Kerry (fiddle)
D:Session tape - Milltown Malbay 1991
N:As played
Z:Bernie Stocks
M:4/4
K:D
D3d3f efdB | {d}BAFE {G}EDB,2 | ABAF D2(3.F.F.D | ABdf eB{d}BA |
D2d2fd (3.f.f.edB | {d}BAFD {G}EDB,2 | ABAF DEFA |1 dBAG FDFA
:|2 dBAG FDDe || fa~a2 afde | fa{b}ag ~a3f | {a}gfed Bbaf |
{a}gfec dcBf | ~g3e afde |1 ~f2af bfaf | gfef g2(3.a.a.g |
faeg {a}fede :|2 ~f3d eA{d}BA | d2(3.f.f.e dBAG | (3.F.F.FEG FDFA ||
